icon-only.svg

<svg xmlns="http://www.w3.org/2000/svg" xmlns:xlink="http://www.w3.org/1999/xlink" version="1.1" width="1080" height="1080" viewBox="0 0 1080 1080" xml:space="preserve">
    <defs></defs>
    <g transform="matrix(1 0 0 1 540 540)" id="463777de-51a3-4c50-9652-64937f4f5d76">
        <rect
            style="
                stroke: none;
                stroke-width: 1;
                stroke-dasharray: none;
                stroke-linecap: butt;
                stroke-dashoffset: 0;
                stroke-linejoin: miter;
                stroke-miterlimit: 4;
                fill: rgb(255, 255, 255);
                fill-rule: nonzero;
                opacity: 1;
                visibility: hidden;
            "
            vector-effect="non-scaling-stroke"
            x="-540"
            y="-540"
            rx="0"
            ry="0"
            width="1080"
            height="1080"
        />
    </g>
    <g transform="matrix(1 0 0 1 540 540)" id="41d36cf2-d75b-4129-99c3-dfaaf8c24bb1"></g>
    <g transform="matrix(2.92 0 0 2.92 540 540)" id="SvgjsG3365">
        <linearGradient id="SVGID_SvgjsLinearGradient3369_3" gradientUnits="objectBoundingBox" gradientTransform="matrix(1 0 0 1 0 0)" x1="0" y1="0" x2="1" y2="0">
            <stop offset="0%" style="stop-color: rgb(251, 176, 64); stop-opacity: 1;" />
            <stop offset="100%" style="stop-color: rgb(249, 237, 50); stop-opacity: 1;" />
        </linearGradient>
        <path
            style="
                stroke: none;
                stroke-width: 1;
                stroke-dasharray: none;
                stroke-linecap: butt;
                stroke-dashoffset: 0;
                stroke-linejoin: miter;
                stroke-miterlimit: 4;
                fill: url(#SVGID_SvgjsLinearGradient3369_3);
                fill-rule: evenodd;
                opacity: 1;
            "
            transform=" translate(-50, -1002.36)"
            d="M 49.999998 958.36217 C 45.131398 958.36217 41.038197999999994 961.93016 40.218798 966.58092 C 22.570298 970.9644 9.499997999999998 986.89135 9.499997999999998 1005.8622 C 9.499997999999998 1011.5439 10.695897999999998 1016.9865 12.812597999999998 1021.8934 C 10.794197999999998 1023.7079 9.499997999999998 1026.3257 9.499997999999998 1029.2372 C 9.499997999999998 1034.679 13.964398 1039.1122 19.406298 1039.1122 C 21.378398 1039.1122 23.234098 1038.5542 24.781298 1037.5497 C 31.698998 1043.077 40.469698 1046.3622 49.999998 1046.3622 C 59.498397999999995 1046.3622 68.249402 1043.0978 75.156302 1037.6122 C 76.705502 1038.6086 78.563102 1039.1747 80.531302 1039.1747 C 86.00500199999999 1039.1747 90.468802 1034.7109 90.468802 1029.2372 C 90.468802 1026.337 89.215502 1023.7171000000001 87.218802 1021.8934 C 89.333002 1016.9792 90.500002 1011.5471 90.500002 1005.8622 C 90.500002 986.88778 77.425702 970.96103 59.78129799999999 966.58092 C 58.96169799999999 961.93348 54.87409799999999 958.36217 49.99999799999999 958.36217 z M 40.374998 970.67467 C 41.448698 974.99202 45.363898 978.20592 49.999998 978.20592 C 54.642998 978.20592 58.584398 974.99144 59.656298 970.67467 C 75.133002 974.90255 86.500002 989.02109 86.500002 1005.8622 C 86.500002 1010.812 85.525302 1015.5352 83.750002 1019.8309 C 82.73580199999999 1019.48 81.66080199999999 1019.2684 80.531302 1019.2684 C 75.057602 1019.2684 70.562602 1023.7635 70.562602 1029.2372 C 70.562602 1031.2917 71.203402 1033.2095 72.281302 1034.7997 C 66.122202 1039.5553 58.399297999999995 1042.3622 49.999998 1042.3622 C 41.562898 1042.3622 33.798198 1039.5098 27.624997999999998 1034.7059 C 28.674698 1033.1359 29.312597999999998 1031.2569999999998 29.312597999999998 1029.2372 C 29.312597999999998 1023.7953 24.848097999999997 1019.3309 19.406298 1019.3309 C 18.317998 1019.3309 17.262698 1019.5025 16.281298 1019.8309 C 14.494798 1015.5325 13.499998 1010.8198 13.499998 1005.8622 C 13.499998 989.02389 24.893098000000002 974.90529 40.374998 970.67467 z"
            stroke-linecap="round"
        />
    </g>
</svg>

<svg viewBox="0 0 370.1794871794872 68.24944602722381" preserveAspectRatio="xMidYMid meet" class="css-8aabad" id="aeedefgh">
    <defs id="SvgjsDefs3364">
        <linearGradient id="SvgjsLinearGradient3369">
            <stop id="SvgjsStop3370" stop-color="#fbb040" offset="0"></stop>
            <stop id="SvgjsStop3371" stop-color="#f9ed32" offset="1"></stop>
        </linearGradient>
        <linearGradient id="SvgjsLinearGradient3372">
            <stop id="SvgjsStop3373" stop-color="#fbb040" offset="0"></stop>
            <stop id="SvgjsStop3374" stop-color="#f9ed32" offset="1"></stop>
        </linearGradient>
    </defs>
    <g id="SvgjsG3365" featurekey="JKiIdh-0" transform="matrix(0.7755618866729979,0,0,0.7755618866729979,-7.3678349648596715,-4.653371320037987)" fill="#fff">
        <g xmlns="http://www.w3.org/2000/svg" transform="translate(0,-952.36218)">
            <path
                style="text-indent: 0; text-transform: none; direction: ltr; block-progression: tb; baseline-shift: baseline; color: ; enable-background: accumulate;"
                d="m 49.999998,958.36217 c -4.8686,0 -8.9618,3.56799 -9.7812,8.21875 -17.6485,4.38348 -30.7188,20.31043 -30.7188,39.28128 0,5.6817 1.1959,11.1243 3.3126,16.0312 -2.0184,1.8145 -3.3126,4.4323 -3.3126,7.3438 0,5.4418 4.4644,9.875 9.9063,9.875 1.9721,0 3.8278,-0.558 5.375,-1.5625 6.9177,5.5273 15.6884,8.8125 25.2187,8.8125 9.4984,0 18.249404,-3.2644 25.156304,-8.75 1.5492,0.9964 3.4068,1.5625 5.375,1.5625 5.4737,0 9.9375,-4.4638 9.9375,-9.9375 0,-2.9002 -1.2533,-5.5201 -3.25,-7.3438 2.1142,-4.9142 3.2812,-10.3463 3.2812,-16.0312 0,-18.97442 -13.0743,-34.90117 -30.718704,-39.28128 -0.8196,-4.64744 -4.9072,-8.21875 -9.7813,-8.21875 z m -9.625,12.3125 c 1.0737,4.31735 4.9889,7.53125 9.625,7.53125 4.643,0 8.5844,-3.21448 9.6563,-7.53125 15.476704,4.22788 26.843704,18.34642 26.843704,35.18753 0,4.9498 -0.9747,9.673 -2.75,13.9687 -1.0142,-0.3509 -2.0892,-0.5625 -3.2187,-0.5625 -5.4737,0 -9.9687,4.4951 -9.9687,9.9688 0,2.0545 0.6408,3.9723 1.7187,5.5625 -6.1591,4.7556 -13.882004,7.5625 -22.281304,7.5625 -8.4371,0 -16.2018,-2.8524 -22.375,-7.6563 1.0497,-1.57 1.6876,-3.4489 1.6876,-5.4687 0,-5.4419 -4.4645,-9.9063 -9.9063,-9.9063 -1.0883,0 -2.1436,0.1716 -3.125,0.5 -1.7865,-4.2984 -2.7813,-9.0111 -2.7813,-13.9687 0,-16.83831 11.3931,-30.95691 26.875,-35.18753 z"
                fill="url(#SvgjsLinearGradient3369)"
                fill-opacity="1"
                fill-rule="evenodd"
                stroke="none"
                marker="none"
                visibility="visible"
                display="inline"
                overflow="visible"
            ></path>
        </g>
    </g>
</svg>
